build/img/sprite.svg

<svg xmlns="http://www.w3.org/2000/svg" xmlns:xlink="http://www.w3.org/1999/xlink"><symbol id="icon-facebook" viewBox="0 0 24 24">
<path d="M15.5378 5.18705H17.4V1.94345C17.0787 1.89925 15.9738 1.7998 14.687 1.7998C12.0021 1.7998 10.1629 3.48875 10.1629 6.59296V9.44981H7.20001V13.0759H10.1629V22.1998H13.7955V13.0768H16.6385L17.0898 9.45066H13.7946V6.95251C13.7955 5.90445 14.0776 5.18705 15.5378 5.18705Z" fill="black"/>
</symbol><symbol id="icon-instagram" viewBox="0 0 24 24">
<path d="M12 8.3999C10.0149 8.3999 8.40002 10.0148 8.40002 11.9999C8.40002 13.985 10.0149 15.5999 12 15.5999C13.9852 15.5999 15.6 13.985 15.6 11.9999C15.6 10.0148 13.9852 8.3999 12 8.3999Z" fill="black"/>
<path fill-rule="evenodd" clip-rule="evenodd" d="M2.40002 17.6106V6.3892C2.40002 4.18596 4.18608 2.3999 6.38932 2.3999H17.6107C19.814 2.3999 21.6 4.18596 21.6 6.3892V17.6106C21.6 19.8138 19.814 21.5999 17.6107 21.5999H6.38932C4.18608 21.5999 2.40002 19.8138 2.40002 17.6106ZM6.55995 9.96611C4.926 14.7018 9.29815 19.0739 14.0338 17.44C15.63 16.8894 16.8896 15.6299 17.4401 14.0338C19.074 9.29803 14.7019 4.92588 9.96612 6.55982C8.37002 7.11037 7.11049 8.37002 6.55995 9.96611ZM18 6.59993C18.6628 6.59993 19.2 6.06268 19.2 5.39993C19.2 4.73719 18.6628 4.19993 18 4.19993C17.3373 4.19993 16.8 4.73719 16.8 5.39993C16.8 6.06268 17.3373 6.59993 18 6.59993Z" fill="black"/>
</symbol><symbol id="icon-play" viewBox="0 0 15 19">
<path d="M15 9.5L0 19V0L15 9.5Z" fill="#1FC0FC"/>
</symbol><symbol id="icon-scroll" viewBox="0 0 76 132">
<g>
  <rect x="37.5" y="76" class="st0" width="1" height="55.5"/>
</g>
<g>
  <path class="st0" d="M38,65c-14.9,0-27-12.1-27-27s12.1-27,27-27s27,12.1,27,27S52.9,65,38,65z M38,12c-14.3,0-26,11.7-26,26
    s11.7,26,26,26c14.3,0,26-11.7,26-26S52.3,12,38,12z"/>
</g>
<g>
  <path class="st0" d="M39.9,76l0-1c1.3-0.1,2.6-0.2,3.9-0.4l0.2,1C42.6,75.8,41.2,75.9,39.9,76z M35.8,75.9c-1.3-0.1-2.7-0.2-4-0.4
    l0.2-1c1.3,0.2,2.6,0.4,3.9,0.4L35.8,75.9z M47.9,74.7l-0.3-1c1.3-0.3,2.5-0.8,3.7-1.2l0.4,0.9C50.5,73.9,49.2,74.4,47.9,74.7z
    M27.8,74.6c-1.3-0.4-2.6-0.8-3.8-1.3l0.4-0.9c1.2,0.5,2.5,0.9,3.7,1.3L27.8,74.6z M55.4,71.8L55,70.9c1.2-0.6,2.3-1.3,3.4-2
    l0.6,0.8C57.8,70.5,56.6,71.2,55.4,71.8z M20.3,71.6c-1.2-0.6-2.4-1.3-3.5-2.1l0.6-0.8c1.1,0.7,2.2,1.4,3.4,2L20.3,71.6z
    M62.2,67.3l-0.6-0.8c1-0.8,2-1.7,2.9-2.7l0.7,0.7C64.2,65.6,63.2,66.5,62.2,67.3z M13.6,67.1c-1-0.9-2-1.8-3-2.8l0.7-0.7
    c0.9,0.9,1.9,1.8,2.9,2.7L13.6,67.1z M67.8,61.6L67,60.9c0.8-1,1.6-2.1,2.3-3.2l0.8,0.5C69.4,59.4,68.7,60.5,67.8,61.6z M8,61.3
    c-0.8-1.1-1.6-2.2-2.3-3.3l0.9-0.5c0.7,1.1,1.4,2.2,2.3,3.2L8,61.3z M72.1,54.7l-0.9-0.4c0.6-1.2,1.1-2.4,1.5-3.6l0.9,0.3
    C73.3,52.2,72.7,53.5,72.1,54.7z M3.7,54.4c-0.6-1.2-1.1-2.5-1.6-3.7l0.9-0.3c0.4,1.2,0.9,2.5,1.5,3.6L3.7,54.4z M74.9,47.1l-1-0.2
    c0.3-1.3,0.6-2.6,0.7-3.9l1,0.1C75.5,44.5,75.2,45.8,74.9,47.1z M1,46.8c-0.3-1.3-0.6-2.6-0.7-4l1-0.1C1.5,44,1.7,45.3,2,46.6
    L1,46.8z M76,39.1l-1,0c0-0.4,0-0.7,0-1.1c0-1,0-1.9-0.1-2.9l1-0.1c0.1,1,0.1,2,0.1,3C76,38.4,76,38.7,76,39.1z M0,38.8
    c0-0.3,0-0.5,0-0.8c0-1.1,0-2.2,0.1-3.3l1,0.1C1,35.9,1,36.9,1,38c0,0.3,0,0.5,0,0.8L0,38.8z M74.4,31.2c-0.2-1.3-0.5-2.6-0.9-3.8
    l1-0.3c0.4,1.3,0.7,2.6,1,3.9L74.4,31.2z M1.7,30.9l-1-0.2c0.3-1.3,0.6-2.6,1-3.9l1,0.3C2.2,28.3,1.9,29.6,1.7,30.9z M72.1,23.7
    c-0.5-1.2-1.1-2.4-1.7-3.5l0.9-0.5c0.7,1.2,1.2,2.4,1.8,3.6L72.1,23.7z M4,23.4L3.1,23c0.5-1.2,1.1-2.5,1.8-3.6l0.9,0.5
    C5.1,21,4.5,22.2,4,23.4z M68.3,16.8c-0.8-1.1-1.6-2.1-2.4-3.1l0.8-0.7c0.9,1,1.7,2.1,2.5,3.2L68.3,16.8z M7.9,16.5L7,16
    c0.8-1.1,1.6-2.2,2.5-3.2l0.7,0.7C9.4,14.4,8.6,15.5,7.9,16.5z M63.1,10.8c-1-0.9-2-1.7-3-2.5l0.6-0.8c1.1,0.8,2.1,1.7,3.1,2.6
    L63.1,10.8z M13.1,10.6l-0.7-0.7c1-0.9,2-1.8,3.1-2.6l0.6,0.8C15.1,8.9,14.1,9.8,13.1,10.6z M56.8,6.1c-1.1-0.7-2.3-1.3-3.5-1.8
    l0.4-0.9c1.2,0.6,2.4,1.2,3.6,1.9L56.8,6.1z M19.4,6l-0.5-0.9c1.2-0.7,2.4-1.3,3.6-1.8L23,4.2C21.8,4.7,20.6,5.3,19.4,6z M49.6,2.9
    c-1.2-0.4-2.5-0.8-3.8-1l0.2-1c1.3,0.3,2.6,0.6,3.9,1.1L49.6,2.9z M26.6,2.8l-0.3-1c1.3-0.4,2.6-0.8,3.9-1l0.2,1
    C29.2,2,27.9,2.4,26.6,2.8z M41.9,1.2c-2.5-0.3-5.1-0.3-7.6,0l-0.1-1c2.6-0.3,5.2-0.2,7.8,0L41.9,1.2z"/>
</g>
</symbol><symbol id="icon-telegram" viewBox="0 0 24 24">
<g opacity="0.16">
<path d="M9.63262 14.8632L9.2687 19.8888C9.78938 19.8888 10.0149 19.6692 10.2853 19.4055L12.7264 17.115L17.7847 20.7519C18.7124 21.2595 19.366 20.9922 19.6163 19.914L22.9365 4.63926L22.9374 4.63836C23.2317 3.29196 22.4415 2.76547 21.5377 3.09576L2.02135 10.4316C0.689406 10.9392 0.709573 11.6682 1.79493 11.9985L6.78447 13.5222L18.3742 6.40235C18.9196 6.04775 19.4155 6.24395 19.0076 6.59855L9.63262 14.8632Z" fill="black"/>
</g>
</symbol><symbol id="icon-twitter" viewBox="0 0 24 24">
<path d="M23.0768 5.1309C22.2529 5.49228 21.3751 5.73182 20.4599 5.84812C21.4014 5.28597 22.12 4.4026 22.4578 3.33784C21.58 3.86122 20.6108 4.23091 19.5779 4.43722C18.7443 3.54969 17.5564 3 16.2604 3C13.7459 3 11.7217 5.0409 11.7217 7.54287C11.7217 7.90287 11.7521 8.24902 11.8269 8.57855C8.05108 8.3944 4.71004 6.58473 2.4656 3.82799C2.07376 4.50783 1.84392 5.28597 1.84392 6.12366C1.84392 7.69656 2.65391 9.09086 3.86128 9.89808C3.13159 9.88423 2.41576 9.67239 1.8093 9.3387C1.8093 9.35255 1.8093 9.37055 1.8093 9.38855C1.8093 11.5956 3.38359 13.4288 5.44803 13.8511C5.07834 13.9522 4.67542 14.0006 4.25727 14.0006C3.96651 14.0006 3.67297 13.984 3.39744 13.9231C3.98589 15.7217 5.65572 17.044 7.64124 17.0869C6.09602 18.2957 4.13405 19.024 2.01007 19.024C1.63761 19.024 1.28038 19.0074 0.923157 18.9617C2.93498 20.259 5.31926 20.9998 7.89047 20.9998C16.2479 20.9998 20.8171 14.0768 20.8171 8.07594C20.8171 7.87518 20.8102 7.68133 20.8005 7.48887C21.7019 6.84919 22.4592 6.05027 23.0768 5.1309Z" fill="black"/>
</symbol><symbol id="icon-whatsapp" viewBox="0 0 24 24">
<g opacity="0.16">
<path d="M12.0025 2H11.9975C6.48375 2 2 6.485 2 12C2 14.1875 2.705 16.215 3.90375 17.8612L2.6575 21.5763L6.50125 20.3475C8.0825 21.395 9.96875 22 12.0025 22C17.5162 22 22 17.5138 22 12C22 6.48625 17.5162 2 12.0025 2ZM17.8212 16.1213C17.58 16.8025 16.6225 17.3675 15.8587 17.5325C15.3363 17.6437 14.6537 17.7325 12.3562 16.78C9.4175 15.5625 7.525 12.5763 7.3775 12.3825C7.23625 12.1887 6.19 10.8013 6.19 9.36625C6.19 7.93125 6.91875 7.2325 7.2125 6.9325C7.45375 6.68625 7.8525 6.57375 8.235 6.57375C8.35875 6.57375 8.47 6.58 8.57 6.585C8.86375 6.5975 9.01125 6.615 9.205 7.07875C9.44625 7.66 10.0337 9.095 10.1038 9.2425C10.175 9.39 10.2463 9.59 10.1462 9.78375C10.0525 9.98375 9.97 10.0725 9.8225 10.2425C9.675 10.4125 9.535 10.5425 9.3875 10.725C9.2525 10.8837 9.1 11.0538 9.27 11.3475C9.44 11.635 10.0275 12.5937 10.8925 13.3637C12.0087 14.3575 12.9137 14.675 13.2375 14.81C13.4787 14.91 13.7662 14.8863 13.9425 14.6988C14.1663 14.4575 14.4425 14.0575 14.7238 13.6638C14.9237 13.3813 15.1763 13.3462 15.4412 13.4462C15.7113 13.54 17.14 14.2462 17.4338 14.3925C17.7275 14.54 17.9212 14.61 17.9925 14.7338C18.0625 14.8575 18.0625 15.4388 17.8212 16.1213Z" fill="black"/>
</g>
</symbol></svg>

<svg xmlns="http://www.w3.org/2000/svg" xmlns:xlink="http://www.w3.org/1999/xlink"><symbol id="icon-facebook"><path d="M15.538 5.187H17.4V1.943c-.321-.044-1.426-.143-2.713-.143-2.685 0-4.524 1.689-4.524 4.793V9.45H7.2v3.626h2.963V22.2h3.633v-9.123h2.843l.45-3.626h-3.294V6.953c0-1.049.283-1.766 1.743-1.766z" fill="#000"/></symbol><symbol id="icon-instagram"><path d="M12 8.4A3.604 3.604 0 008.4 12c0 1.985 1.615 3.6 3.6 3.6s3.6-1.615 3.6-3.6-1.615-3.6-3.6-3.6z" fill="#000"/><path fill-rule="evenodd" clip-rule="evenodd" d="M2.4 17.61V6.39A3.99 3.99 0 016.39 2.4h11.22a3.99 3.99 0 013.99 3.99v11.22a3.99 3.99 0 01-3.99 3.99H6.39a3.99 3.99 0 01-3.99-3.99zm4.16-7.644a5.823 5.823 0 007.474 7.474 5.508 5.508 0 003.406-3.406A5.823 5.823 0 009.966 6.56 5.508 5.508 0 006.56 9.966zM18 6.6a1.2 1.2 0 100-2.4 1.2 1.2 0 000 2.4z" fill="#000"/></symbol><symbol id="icon-play" viewBox="0 0 15 19"><path d="M15 9.5L0 19V0l15 9.5z"/></symbol><symbol id="icon-scroll" viewBox="0 0 76 132"><path class="st0" d="M37.5 76h1v55.5h-1zm.5-11c-14.9 0-27-12.1-27-27s12.1-27 27-27 27 12.1 27 27-12.1 27-27 27zm0-53c-14.3 0-26 11.7-26 26s11.7 26 26 26 26-11.7 26-26-11.7-26-26-26zm1.9 64v-1c1.3-.1 2.6-.2 3.9-.4l.2 1c-1.4.2-2.8.3-4.1.4zm-4.1-.1c-1.3-.1-2.7-.2-4-.4l.2-1c1.3.2 2.6.4 3.9.4l-.1 1zm12.1-1.2l-.3-1c1.3-.3 2.5-.8 3.7-1.2l.4.9c-1.2.5-2.5 1-3.8 1.3zm-20.1-.1c-1.3-.4-2.6-.8-3.8-1.3l.4-.9c1.2.5 2.5.9 3.7 1.3l-.3.9zm27.6-2.8l-.4-.9c1.2-.6 2.3-1.3 3.4-2l.6.8c-1.2.8-2.4 1.5-3.6 2.1zm-35.1-.2c-1.2-.6-2.4-1.3-3.5-2.1l.6-.8c1.1.7 2.2 1.4 3.4 2l-.5.9zm41.9-4.3l-.6-.8c1-.8 2-1.7 2.9-2.7l.7.7c-1 1.1-2 2-3 2.8zm-48.6-.2c-1-.9-2-1.8-3-2.8l.7-.7c.9.9 1.9 1.8 2.9 2.7l-.6.8zm54.2-5.5l-.8-.7c.8-1 1.6-2.1 2.3-3.2l.8.5c-.7 1.2-1.4 2.3-2.3 3.4zM8 61.3c-.8-1.1-1.6-2.2-2.3-3.3l.9-.5c.7 1.1 1.4 2.2 2.3 3.2l-.9.6zm64.1-6.6l-.9-.4c.6-1.2 1.1-2.4 1.5-3.6l.9.3c-.3 1.2-.9 2.5-1.5 3.7zm-68.4-.3c-.6-1.2-1.1-2.5-1.6-3.7l.9-.3c.4 1.2.9 2.5 1.5 3.6l-.8.4zm71.2-7.3l-1-.2c.3-1.3.6-2.6.7-3.9l1 .1c-.1 1.4-.4 2.7-.7 4zM1 46.8c-.3-1.3-.6-2.6-.7-4l1-.1c.2 1.3.4 2.6.7 3.9l-1 .2zm75-7.7h-1V38c0-1 0-1.9-.1-2.9l1-.1c.1 1 .1 2 .1 3v1.1zm-76-.3V38c0-1.1 0-2.2.1-3.3l1 .1C1 35.9 1 36.9 1 38v.8H0zm74.4-7.6c-.2-1.3-.5-2.6-.9-3.8l1-.3c.4 1.3.7 2.6 1 3.9l-1.1.2zm-72.7-.3l-1-.2c.3-1.3.6-2.6 1-3.9l1 .3c-.5 1.2-.8 2.5-1 3.8zm70.4-7.2c-.5-1.2-1.1-2.4-1.7-3.5l.9-.5c.7 1.2 1.2 2.4 1.8 3.6l-1 .4zM4 23.4l-.9-.4c.5-1.2 1.1-2.5 1.8-3.6l.9.5C5.1 21 4.5 22.2 4 23.4zm64.3-6.6c-.8-1.1-1.6-2.1-2.4-3.1l.8-.7c.9 1 1.7 2.1 2.5 3.2l-.9.6zm-60.4-.3L7 16c.8-1.1 1.6-2.2 2.5-3.2l.7.7c-.8.9-1.6 2-2.3 3zm55.2-5.7c-1-.9-2-1.7-3-2.5l.6-.8c1.1.8 2.1 1.7 3.1 2.6l-.7.7zm-50-.2l-.7-.7c1-.9 2-1.8 3.1-2.6l.6.8c-1 .8-2 1.7-3 2.5zm43.7-4.5c-1.1-.7-2.3-1.3-3.5-1.8l.4-.9c1.2.6 2.4 1.2 3.6 1.9l-.5.8zM19.4 6l-.5-.9c1.2-.7 2.4-1.3 3.6-1.8l.5.9c-1.2.5-2.4 1.1-3.6 1.8zm30.2-3.1c-1.2-.4-2.5-.8-3.8-1l.2-1c1.3.3 2.6.6 3.9 1.1l-.3.9zm-23-.1l-.3-1c1.3-.4 2.6-.8 3.9-1l.2 1c-1.2.2-2.5.6-3.8 1zm15.3-1.6c-2.5-.3-5.1-.3-7.6 0l-.1-1c2.6-.3 5.2-.2 7.8 0l-.1 1z"/></symbol><symbol id="icon-telegram"><path d="M9.633 14.863l-.364 5.026c.52 0 .746-.22 1.016-.483l2.441-2.291 5.059 3.637c.927.508 1.581.24 1.831-.838l3.32-15.275h.001c.295-1.347-.495-1.874-1.4-1.543L2.022 10.432c-1.332.507-1.311 1.236-.226 1.566l4.99 1.524 11.59-7.12c.545-.354 1.04-.158.633.197l-9.375 8.264z" fill="#000" opacity=".16"/></symbol><symbol id="icon-twitter"><path d="M23.077 5.13a9.47 9.47 0 01-2.617.718 4.516 4.516 0 001.998-2.51 9.076 9.076 0 01-2.88 1.1 4.54 4.54 0 00-7.856 3.106c0 .359.03.705.105 1.035C8.05 8.394 4.71 6.585 2.466 3.828a4.573 4.573 0 00-.622 2.296c0 1.573.81 2.967 2.017 3.774a4.485 4.485 0 01-2.052-.56v.05a4.563 4.563 0 003.639 4.463c-.37.101-.773.15-1.19.15-.291 0-.585-.017-.86-.078.588 1.799 2.258 3.121 4.243 3.164a9.125 9.125 0 01-5.63 1.937c-.373 0-.73-.017-1.088-.062A12.787 12.787 0 007.89 21c8.358 0 12.927-6.923 12.927-12.924 0-.2-.007-.395-.017-.587a9.061 9.061 0 002.277-2.358z" fill="#000"/></symbol><symbol id="icon-whatsapp"><path d="M12.002 2h-.005C6.485 2 2 6.485 2 12c0 2.188.705 4.215 1.904 5.861l-1.246 3.715L6.5 20.347A9.913 9.913 0 0012.002 22C17.517 22 22 17.514 22 12S17.516 2 12.002 2zm5.82 14.121c-.242.681-1.2 1.247-1.963 1.412-.523.11-1.205.2-3.503-.753-2.938-1.218-4.831-4.204-4.978-4.398-.142-.193-1.188-1.58-1.188-3.016 0-1.435.729-2.133 1.022-2.433.242-.247.64-.36 1.023-.36.124 0 .235.007.335.012.294.013.441.03.635.494.241.581.829 2.016.899 2.163.071.148.142.348.042.542-.094.2-.176.288-.324.458-.147.17-.287.3-.434.483-.136.159-.288.329-.118.623.17.287.758 1.246 1.623 2.016 1.116.993 2.02 1.311 2.345 1.446.24.1.528.076.705-.111.223-.242.5-.642.78-1.035.2-.283.453-.318.718-.218.27.094 1.699.8 1.993.947.293.147.487.217.558.34.07.124.07.706-.17 1.388z" fill="#000" opacity=".16"/></symbol></svg>
